logo.svg

<?xml version="1.0" encoding="UTF-8" standalone="no"?><!DOCTYPE svg PUBLIC "-//W3C//DTD SVG 1.1//EN" "http://www.w3.org/Graphics/SVG/1.1/DTD/svg11.dtd"><svg width="100%" height="100%" viewBox="0 0 837 837" version="1.1" xmlns="http://www.w3.org/2000/svg" xmlns:xlink="http://www.w3.org/1999/xlink" xml:space="preserve" xmlns:serif="http://www.serif.com/" style="fill-rule:evenodd;clip-rule:evenodd;stroke-linejoin:round;stroke-miterlimit:2;"><g><path d="M164.95,681.83c-15.31,-19.35 -32.27,-51.72 -42.54,-81.21c-6.74,-19.39 -12.71,-44.87 -16.07,-68.62c-2.55,-17.96 -2.53,-62.23 0.02,-81c9.67,-71.17 38.9,-133.17 89.11,-189.01c9.99,-11.11 16.43,-17.55 12.49,-12.47c-0.85,1.09 -4.03,4.91 -7.06,8.48c-28.02,32.99 -51.44,74.3 -64.36,113.5c-12.53,38.06 -17.16,68.8 -16.25,107.94c0.55,23.52 1.56,32.38 6.19,54.27c2.62,12.4 5.97,24.02 5,17.35c-3.35,-22.97 -3.88,-30.29 -3.93,-54.56c-0.05,-27.03 0.66,-35.69 5,-61.12c9.88,-57.76 34.83,-113.12 71.74,-159.17c69.47,-86.68 171.34,-135.14 277.21,-131.86c50.88,1.57 97.83,13.31 142.5,35.61c32.35,16.15 62.88,37.76 88.59,62.69c8.58,8.33 8.08,8.14 -3.01,-1.13c-55.37,-46.3 -118.92,-73.22 -187.58,-79.47c-14.77,-1.34 -45.83,-1.35 -59.14,-0.01c-54.78,5.51 -103.13,22.54 -148.86,52.43c-30.07,19.67 -61.33,49.38 -83.73,79.61c-30.53,41.19 -50.77,88.49 -58.81,137.41c-1.36,8.24 -2.97,21.29 -3.59,29c-2.83,35.47 3.43,79.97 16.13,114.51c5.82,15.84 5.74,13.63 0.77,22.61c-6.39,11.56 -11.49,23.91 -14.5,35.12c-2.34,8.72 -2.63,11.65 -2.68,27.27c-0.04,11.64 0.37,18.96 1.24,21.85c0.72,2.39 1.09,4.57 0.82,4.83c-0.26,0.26 -2.38,-1.92 -4.7,-4.85Zm-27.13,-10.17c-50.12,-45.34 -82.98,-109.63 -89.79,-175.66c-1.36,-13.17 -1.4,-44.44 -0.09,-57.04c2.09,-19.99 9.47,-50.18 16.73,-68.45c5.21,-13.11 13.32,-29.64 19.89,-40.51c6.24,-10.33 19.18,-29 20.1,-29c0.31,0 -0.09,1.01 -0.9,2.25c-8.6,13.13 -11.89,18.88 -18.56,32.46c-27.17,55.38 -34.5,117.84 -20.66,176.29c2.99,12.64 8.46,29.49 13.14,40.46c6.82,15.97 20.71,40.09 28.92,50.19c2.05,2.53 5.09,8.8 7.74,16c7.24,19.64 19.9,43.13 30.1,55.85c7.36,9.18 6.06,8.63 -6.62,-2.84Zm61.27,-104.38c-3.81,-9.96 -9.09,-29.27 -12.18,-44.6l-3,-14.82l4.49,-13.88c15.09,-46.66 38.24,-84.85 71.53,-117.98c33.93,-33.77 68.85,-54.77 114.57,-68.91c39.27,-12.14 84.77,-13.81 124.37,-4.55c64.28,15.02 116.36,52.39 155.33,111.46c21.04,31.9 35.25,69.72 41.32,110c1.72,11.47 3.34,34 2.44,34c-0.31,0 -1.93,-1.46 -3.6,-3.25c-2.74,-2.93 -3.21,-4.44 -4.76,-15.25c-6.41,-44.71 -26.43,-90.56 -55.24,-126.5c-9.97,-12.44 -31.44,-33.57 -42.36,-41.69c-100.1,-74.41 -236.79,-53.32 -319.54,49.29c-28.84,35.77 -49.46,82.51 -55.95,126.86c-0.89,6.02 -2.15,11.65 -2.81,12.5c-3.4,4.38 -11.23,13.04 -11.78,13.04c-0.35,0 -1.63,-2.57 -2.83,-5.72Zm38,-34.94c7.22,-33.02 27.16,-74.22 48.66,-100.54c47.84,-58.54 124.95,-92.76 193.23,-85.75c26.59,2.72 55.97,11.61 77.02,23.28c9.13,5.07 22.96,14.54 32.68,22.39c34.42,27.79 64.71,76.99 78.28,127.16c4.89,18.07 5.63,16.98 -6.49,9.62c-69.43,-42.1 -158.48,-61.76 -241.97,-53.42c-70.29,7.03 -133.28,29.48 -181.53,64.74c-1.72,1.25 -1.71,0.9 0.12,-7.48Zm553.51,-33.56c-6.42,-21.45 -20.79,-53.47 -33.07,-73.74c-39.15,-64.55 -95.61,-113.49 -164.33,-142.42c-28.43,-11.97 -52.84,-18.01 -92.7,-22.95c-6.79,-0.84 7.79,-0.57 18.89,0.35c46.47,3.85 92.24,18.69 134.09,43.49c69.85,41.39 123.05,112.91 136.85,183.99c4.63,23.84 4.68,26.01 0.27,11.28Zm-606.24,-42.78c0.29,-1.38 0.79,-6.1 1.13,-10.5c1.44,-18.88 5.86,-33.21 15.96,-51.67c30.98,-56.68 71.56,-98.99 125.55,-130.89c37.55,-22.18 80.09,-36.41 124.15,-41.51c19.6,-2.26 57.28,-1.53 77.35,1.51c79.83,12.1 150.1,52.72 202.53,117.09c11.42,14.03 15.64,19.98 8.47,11.97c-54.93,-61.42 -119.25,-97.9 -194.06,-110.09c-18.37,-3 -57.44,-3.76 -76.94,-1.51c-66.45,7.67 -125.41,35.64 -176,83.48c-3.85,3.64 -12.63,11.33 -19.5,17.08c-34.82,29.13 -60.19,60.72 -79.12,98.52c-4.95,9.88 -9.24,18.21 -9.52,18.5c-0.29,0.28 -0.29,-0.61 0,-1.98Z" style="fill:#e0e5ed;fill-rule:nonzero;"/></g></svg>

<svg xmlns="http://www.w3.org/2000/svg" width="837" height="837" viewBox="0 0 837 837">
<g>
<path d="M 0.00 0.00 L 837.00 0.00 L 837.00 837.00 L 0.00 837.00 ZM 237.09 532.34 C235.26,540.72 235.25,541.07 236.97,539.82 C285.22,504.56 348.21,482.11 418.50,475.08 C501.99,466.74 591.04,486.40 660.47,528.50 C661.60,529.19 662.62,529.82 663.54,530.39 C667.23,532.68 669.21,533.91 669.95,533.38 C670.80,532.78 669.98,529.83 668.22,523.46 C667.84,522.10 667.42,520.58 666.96,518.88 C653.39,468.71 623.10,419.51 588.68,391.72 C578.96,383.87 565.13,374.40 556.00,369.33 C534.95,357.66 505.57,348.77 478.98,346.05 C410.70,339.04 333.59,373.26 285.75,431.80 C264.25,458.12 244.31,499.32 237.09,532.34 ZM 164.95 681.83 C167.27,684.76 169.39,686.94 169.65,686.68 C169.92,686.42 169.55,684.24 168.83,681.85 C167.96,678.96 167.55,671.64 167.59,660.00 C167.64,644.38 167.93,641.45 170.27,632.73 C173.28,621.52 178.38,609.17 184.77,597.61 C186.82,593.91 188.04,592.11 188.35,590.17 C188.74,587.78 187.77,585.17 185.31,578.56 C184.91,577.49 184.47,576.31 184.00,575.00 C171.30,540.46 165.04,495.96 167.87,460.49 C168.49,452.78 170.10,439.73 171.46,431.49 C179.50,382.57 199.74,335.27 230.27,294.08 C252.67,263.85 283.93,234.14 314.00,214.47 C359.73,184.58 408.08,167.55 462.86,162.04 C476.17,160.70 507.23,160.71 522.00,162.05 C590.66,168.30 654.21,195.22 709.58,241.52 C720.67,250.79 721.17,250.98 712.59,242.65 C686.88,217.72 656.35,196.11 624.00,179.96 C579.33,157.66 532.38,145.92 481.50,144.35 C375.63,141.07 273.76,189.53 204.29,276.21 C167.38,322.26 142.43,377.62 132.55,435.38 C128.21,460.81 127.50,469.47 127.55,496.50 C127.60,520.77 128.13,528.09 131.48,551.06 C132.45,557.73 129.10,546.11 126.48,533.71 C121.85,511.82 120.84,502.96 120.29,479.44 C119.38,440.30 124.01,409.56 136.54,371.50 C149.46,332.30 172.88,290.99 200.90,258.00 C203.93,254.43 207.11,250.61 207.96,249.52 C211.90,244.44 205.46,250.88 195.47,261.99 C145.26,317.83 116.03,379.83 106.36,451.00 C103.81,469.77 103.79,514.04 106.34,532.00 C109.70,555.75 115.67,581.23 122.41,600.62 C132.68,630.11 149.64,662.48 164.95,681.83 ZM 199.09 567.28 C200.29,570.43 201.57,573.00 201.92,573.00 C202.47,573.00 210.30,564.34 213.70,559.96 C214.36,559.11 215.62,553.48 216.51,547.46 C223.00,503.11 243.62,456.37 272.46,420.60 C355.21,317.99 491.90,296.90 592.00,371.31 C602.92,379.43 624.39,400.56 634.36,413.00 C663.17,448.94 683.19,494.79 689.60,539.50 C691.15,550.31 691.62,551.82 694.36,554.75 C696.03,556.54 697.65,558.00 697.96,558.00 C698.86,558.00 697.24,535.47 695.52,524.00 C689.45,483.72 675.24,445.90 654.20,414.00 C615.23,354.93 563.15,317.56 498.87,302.54 C459.27,293.28 413.77,294.95 374.50,307.09 C328.78,321.23 293.86,342.23 259.93,376.00 C226.64,409.13 203.49,447.32 188.40,493.98 L 183.91 507.86 L 186.91 522.68 C190.00,538.01 195.28,557.32 199.09,567.28 ZM 184.36 456.00 C184.07,457.37 184.07,458.26 184.36,457.98 C184.64,457.69 188.93,449.36 193.88,439.48 C212.81,401.68 238.18,370.09 273.00,340.96 C279.87,335.21 288.65,327.52 292.50,323.88 C343.09,276.04 402.05,248.07 468.50,240.40 C488.00,238.15 527.07,238.91 545.44,241.91 C620.25,254.10 684.57,290.58 739.50,352.00 C746.67,360.01 742.45,354.06 731.03,340.03 C678.60,275.66 608.33,235.04 528.50,222.94 C508.43,219.90 470.75,219.17 451.15,221.43 C407.09,226.53 364.55,240.76 327.00,262.94 C273.01,294.84 232.43,337.15 201.45,393.83 C191.35,412.29 186.93,426.62 185.49,445.50 C185.15,449.90 184.65,454.62 184.36,456.00 ZM 137.82 671.66 C150.50,683.13 151.80,683.68 144.44,674.50 C134.24,661.78 121.58,638.29 114.34,618.65 C111.69,611.45 108.65,605.18 106.60,602.65 C98.39,592.55 84.50,568.43 77.68,552.46 C73.00,541.49 67.53,524.64 64.54,512.00 C50.70,453.55 58.03,391.09 85.20,335.71 C91.87,322.13 95.16,316.38 103.76,303.25 C104.57,302.01 104.97,301.00 104.66,301.00 C103.74,301.00 90.80,319.67 84.56,330.00 C77.99,340.87 69.88,357.40 64.67,370.51 C57.41,388.78 50.03,418.97 47.94,438.96 C46.63,451.56 46.67,482.83 48.03,496.00 C54.84,562.03 87.70,626.32 137.82,671.66 ZM 790.60 498.78 C795.01,513.51 794.96,511.34 790.33,487.50 C776.53,416.42 723.33,344.90 653.48,303.51 C611.63,278.71 565.86,263.87 519.39,260.02 C508.29,259.10 493.71,258.83 500.50,259.67 C540.36,264.61 564.77,270.65 593.20,282.62 C661.92,311.55 718.38,360.49 757.53,425.04 C769.81,445.31 784.18,477.33 790.60,498.78 Z" fill="rgb(15,15,16)"/>
<path d="M 164.95 681.83 C149.64,662.48 132.68,630.11 122.41,600.62 C115.67,581.23 109.70,555.75 106.34,532.00 C103.79,514.04 103.81,469.77 106.36,451.00 C116.03,379.83 145.26,317.83 195.47,261.99 C205.46,250.88 211.90,244.44 207.96,249.52 C207.11,250.61 203.93,254.43 200.90,258.00 C172.88,290.99 149.46,332.30 136.54,371.50 C124.01,409.56 119.38,440.30 120.29,479.44 C120.84,502.96 121.85,511.82 126.48,533.71 C129.10,546.11 132.45,557.73 131.48,551.06 C128.13,528.09 127.60,520.77 127.55,496.50 C127.50,469.47 128.21,460.81 132.55,435.38 C142.43,377.62 167.38,322.26 204.29,276.21 C273.76,189.53 375.63,141.07 481.50,144.35 C532.38,145.92 579.33,157.66 624.00,179.96 C656.35,196.11 686.88,217.72 712.59,242.65 C721.17,250.98 720.67,250.79 709.58,241.52 C654.21,195.22 590.66,168.30 522.00,162.05 C507.23,160.71 476.17,160.70 462.86,162.04 C408.08,167.55 359.73,184.58 314.00,214.47 C283.93,234.14 252.67,263.85 230.27,294.08 C199.74,335.27 179.50,382.57 171.46,431.49 C170.10,439.73 168.49,452.78 167.87,460.49 C165.04,495.96 171.30,540.46 184.00,575.00 C189.82,590.84 189.74,588.63 184.77,597.61 C178.38,609.17 173.28,621.52 170.27,632.73 C167.93,641.45 167.64,644.38 167.59,660.00 C167.55,671.64 167.96,678.96 168.83,681.85 C169.55,684.24 169.92,686.42 169.65,686.68 C169.39,686.94 167.27,684.76 164.95,681.83 ZM 137.82 671.66 C87.70,626.32 54.84,562.03 48.03,496.00 C46.67,482.83 46.63,451.56 47.94,438.96 C50.03,418.97 57.41,388.78 64.67,370.51 C69.88,357.40 77.99,340.87 84.56,330.00 C90.80,319.67 103.74,301.00 104.66,301.00 C104.97,301.00 104.57,302.01 103.76,303.25 C95.16,316.38 91.87,322.13 85.20,335.71 C58.03,391.09 50.70,453.55 64.54,512.00 C67.53,524.64 73.00,541.49 77.68,552.46 C84.50,568.43 98.39,592.55 106.60,602.65 C108.65,605.18 111.69,611.45 114.34,618.65 C121.58,638.29 134.24,661.78 144.44,674.50 C151.80,683.68 150.50,683.13 137.82,671.66 ZM 199.09 567.28 C195.28,557.32 190.00,538.01 186.91,522.68 L 183.91 507.86 L 188.40 493.98 C203.49,447.32 226.64,409.13 259.93,376.00 C293.86,342.23 328.78,321.23 374.50,307.09 C413.77,294.95 459.27,293.28 498.87,302.54 C563.15,317.56 615.23,354.93 654.20,414.00 C675.24,445.90 689.45,483.72 695.52,524.00 C697.24,535.47 698.86,558.00 697.96,558.00 C697.65,558.00 696.03,556.54 694.36,554.75 C691.62,551.82 691.15,550.31 689.60,539.50 C683.19,494.79 663.17,448.94 634.36,413.00 C624.39,400.56 602.92,379.43 592.00,371.31 C491.90,296.90 355.21,317.99 272.46,420.60 C243.62,456.37 223.00,503.11 216.51,547.46 C215.62,553.48 214.36,559.11 213.70,559.96 C210.30,564.34 202.47,573.00 201.92,573.00 C201.57,573.00 200.29,570.43 199.09,567.28 ZM 237.09 532.34 C244.31,499.32 264.25,458.12 285.75,431.80 C333.59,373.26 410.70,339.04 478.98,346.05 C505.57,348.77 534.95,357.66 556.00,369.33 C565.13,374.40 578.96,383.87 588.68,391.72 C623.10,419.51 653.39,468.71 666.96,518.88 C671.85,536.95 672.59,535.86 660.47,528.50 C591.04,486.40 501.99,466.74 418.50,475.08 C348.21,482.11 285.22,504.56 236.97,539.82 C235.25,541.07 235.26,540.72 237.09,532.34 ZM 790.60 498.78 C784.18,477.33 769.81,445.31 757.53,425.04 C718.38,360.49 661.92,311.55 593.20,282.62 C564.77,270.65 540.36,264.61 500.50,259.67 C493.71,258.83 508.29,259.10 519.39,260.02 C565.86,263.87 611.63,278.71 653.48,303.51 C723.33,344.90 776.53,416.42 790.33,487.50 C794.96,511.34 795.01,513.51 790.60,498.78 ZM 184.36 456.00 C184.65,454.62 185.15,449.90 185.49,445.50 C186.93,426.62 191.35,412.29 201.45,393.83 C232.43,337.15 273.01,294.84 327.00,262.94 C364.55,240.76 407.09,226.53 451.15,221.43 C470.75,219.17 508.43,219.90 528.50,222.94 C608.33,235.04 678.60,275.66 731.03,340.03 C742.45,354.06 746.67,360.01 739.50,352.00 C684.57,290.58 620.25,254.10 545.44,241.91 C527.07,238.91 488.00,238.15 468.50,240.40 C402.05,248.07 343.09,276.04 292.50,323.88 C288.65,327.52 279.87,335.21 273.00,340.96 C238.18,370.09 212.81,401.68 193.88,439.48 C188.93,449.36 184.64,457.69 184.36,457.98 C184.07,458.26 184.07,457.37 184.36,456.00 Z" fill="rgb(224,229,237)"/>
</g>
</svg>
